icons/outline/barcode-off.svg

<!--
category: System
tags: [product, shop, scan, supermarket]
version: "1.62"
unicode: "f0b3"
-->
<svg
  xmlns="http://www.w3.org/2000/svg"
  width="24"
  height="24"
  viewBox="0 0 24 24"
  fill="none"
  stroke="currentColor"
  stroke-width="2"
  stroke-linecap="round"
  stroke-linejoin="round"
>
  <path d="M4 7v-1c0 -.552 .224 -1.052 .586 -1.414m-.586 12.414v1a2 2 0 0 0 2 2h2m8 -16h2a2 2 0 0 1 2 2v1m-4 13h2c.551 0 1.05 -.223 1.412 -.584m-14.412 -8.416h1v2h-1zm5 0v2m5 -2v.01m4 -.01v2m-16 -10l18 18" />
</svg>

<!--
category: System
tags: [product, shop, scan, supermarket]
version: "1.62"
unicode: "f0b3"
-->
<svg
  xmlns="http://www.w3.org/2000/svg"
  width="24"
  height="24"
  viewBox="0 0 24 24"
  fill="none"
  stroke="currentColor"
  stroke-width="2"
  stroke-linecap="round"
  stroke-linejoin="round"
>
    <path d="M4 7v-1c0 -.552 .224 -1.052 .586 -1.414M4 17v1a2 2 0 0 0 2 2h2M16 4h2a2 2 0 0 1 2 2v1M16 20h2c.551 0 1.05 -.223 1.412 -.584M5 11h1v2h-1zM10 11v2M15 11v.01M19 11v2M3 3l18 18" />
</svg>
